; generated by PrusaSlicer 2.5.0+MacOS-arm64 on 2023-04-25 at 12:21:22 UTC


;
;
; 

; external perimeters extrusion width = 0.45mm
; perimeters extrusion width = 0.45mm
; infill extrusion width = 0.45mm
; solid infill extrusion width = 0.45mm
; top infill extrusion width = 0.40mm
; first layer extrusion width = 0.42mm

; external perimeters extrusion width = 0.45mm
; perimeters extrusion width = 0.45mm
; infill extrusion width = 0.45mm
; solid infill extrusion width = 0.45mm
; top infill extrusion width = 0.40mm
; first layer extrusion width = 0.42mm

M73 P0 R170
M73 Q0 S171
M201 X1000 Y1000 Z200 E5000 ; sets maximum accelerations, mm/sec^2
M203 X200 Y200 Z12 E120 ; sets maximum feedrates, mm / sec
M204 P1250 R1250 T1250 ; sets acceleration (P, T) and retract acceleration (R), mm/sec^2
M205 X8.00 Y8.00 Z0.40 E4.50 ; sets the jerk limits, mm/sec
M205 S0 T0 ; sets the minimum extruding and travel feed rate, mm/sec
M107
;TYPE:Custom
M862.3 P "MK3S" ; printer model check
M862.1 P0.4 ; nozzle diameter check
M115 U3.12.1 ; tell printer latest fw version
G90 ; use absolute coordinates
M83 ; extruder relative mode
M104 S240 ; set extruder temp
M140 S85 ; set bed temp
M190 S85 ; wait for bed temp
M109 S240 ; wait for extruder temp
G28 W ; home all without mesh bed level
G80 ; mesh bed leveling

G1 Z0.2 F720
G1 Y-3 F1000 ; go outside print area
G92 E0
G1 X60 E9 F1000 ; intro line
G1 X100 E12.5 F1000 ; intro line

G92 E0
M221 S95

; Don't change E values below. Excessive value can damage the printer.
M907 E430 ; set extruder motor current
G21 ; set units to millimeters
G90 ; use absolute coordinates
M83 ; use relative distances for extrusion
M900 K0.08 ; Filament gcode LA 1.5
M900 K45 ; Filament gcode LA 1.0
M107
;LAYER_CHANGE
;Z:0.2
;HEIGHT:0.2
;BEFORE_LAYER_CHANGE
G92 E0.0
;0.2


G1 E-1 F2100
G1 Z.2 F720
;AFTER_LAYER_CHANGE
;0.2
G1 Z.4
G1 X13.067 Y70.253 F10800
G1 Z.2 F720
G1 E1 F2100
M204 S800
;TYPE:Skirt/Brim
;WIDTH:0.42
G1 F1200
G1 X101.163 Y53.867 E2.80957
G1 X102.479 Y53.766 E.04138
G1 X147.953 Y53.8 E1.42579
G1 X149.265 Y53.901 E.04127
G1 X240.591 Y70.888 E2.91258
G1 X242.047 Y71.327 E.04768
M73 Q0 S170
G1 X243.207 Y71.953 E.04133
G1 X243.891 Y72.478 E.02704
G1 X244.796 Y73.436 E.04132
G1 X245.501 Y74.55 E.04132
G1 X245.979 Y75.778 E.04133
G1 X246.239 Y77.418 E.05206
G1 X246.28 Y127.101 E1.55777
G1 X246.166 Y127.829 E.02311
G1 X245.77 Y128.991 E.0385
G1 X245.217 Y130.088 E.0385
G1 X244.52 Y131.099 E.0385
G1 X243.691 Y132.004 E.0385
G1 X242.808 Y132.747 E.03618
G1 X239.344 Y135.137 E.13194
G1 X235.693 Y137.43 E.13519
G1 X231.946 Y139.562 E.13519
G1 X228.305 Y141.427 E.12825
G1 X224.093 Y143.366 E.14539
G1 X220.194 Y144.948 E.13194
G1 X216.132 Y146.396 E.13519
G1 X211.911 Y147.692 E.13845
G1 X207.839 Y148.751 E.13193
G1 X203.84 Y149.609 E.12825
G1 X199.372 Y150.374 E.14213
G1 X51.449 Y150.373 E4.63801
G1 X46.805 Y149.621 E.14749
G1 X42.69 Y148.741 E.13194
G1 X38.517 Y147.659 E.13519
G1 X34.395 Y146.394 E.13519
G1 X30.332 Y144.951 E.13519
G1 X26.24 Y143.291 E.13845
G1 X22.414 Y141.54 E.13194
G1 X18.574 Y139.578 E.13519
G1 X14.824 Y137.45 E.13519
G1 X11.171 Y135.16 E.13519
G1 X7.621 Y132.713 E.13519
G1 X6.737 Y131.971 E.03618
G1 X5.908 Y131.065 E.0385
G1 X5.05 Y129.77 E.04871
G1 X4.538 Y128.654 E.0385
G1 X4.262 Y127.795 E.02828
G1 X4.149 Y127.067 E.02311
G1 X4.189 Y77.384 E1.55777
G1 X4.449 Y75.744 E.05206
M73 P0 R169
G1 X4.928 Y74.516 E.04132
G1 X5.364 Y73.773 E.02704
G1 X6.538 Y72.444 E.05557
G1 X7.609 Y71.677 E.04132
G1 X8.808 Y71.129 E.04133
G1 X9.837 Y70.854 E.0334
G1 X13.008 Y70.264 E.10113
M204 S1000
; printing object sweep_case_v1.stl id:0 copy 0
;WIPE_START
G1 F8640
G1 X17.053 Y69.512 E-.95
;WIPE_END
G1 E-.05 F2100
G1 Z.4 F720
G1 X99.739 Y120.824 F10800
G1 Z.2 F720
G1 E1 F2100
M204 S800
;TYPE:Perimeter
;WIDTH:0.419999
G1 F1200
G1 X99.536 Y120.89 E.00669
G1 X99.34 Y121.099 E.00898
G1 X99.271 Y121.37 E.00875
G1 X99.271 Y136.521 E.47507
G1 X99.197 Y137.144 E.01965
G1 X98.996 Y137.688 E.01818
G1 X98.673 Y138.169 E.01818
G1 X98.246 Y138.561 E.01818
G1 X97.718 Y138.854 E.01893
G1 X93.146 Y140.423 E.15156
G1 X88.471 Y141.859 E.15334
G1 X83.751 Y143.142 E.15334
G1 X78.993 Y144.271 E.15335
G1 X74.2 Y145.244 E.15334
G1 X69.378 Y146.061 E.15334
G1 X64.532 Y146.72 E.15334
G1 X59.695 Y147.218 E.15246
G1 X51.518 Y147.209 E.25638
G1 X47.45 Y146.523 E.12934
G1 X43.369 Y145.651 E.13086
G1 X39.33 Y144.6 E.13085
G1 X35.34 Y143.375 E.13086
G1 X31.408 Y141.976 E.13085
G1 X27.541 Y140.407 E.13085
G1 X23.685 Y138.638 E.13303
G1 X20.031 Y136.769 E.12868
G1 X16.402 Y134.707 E.13086
G1 X12.867 Y132.489 E.13085
G1 X9.452 Y130.132 E.13009
G1 X8.841 Y129.607 E.02527
G1 X8.316 Y129.012 E.02488
G1 X7.878 Y128.351 E.02488
G1 X7.534 Y127.636 E.02488
G1 X7.313 Y126.946 E.0227
G1 X7.354 Y77.444 E1.55211
G1 X7.459 Y76.722 E.02286
G1 X7.695 Y76.053 E.02227
G1 X8.054 Y75.44 E.02227
G1 X8.525 Y74.908 E.02227
G1 X9.088 Y74.475 E.02227
G1 X9.724 Y74.159 E.02227
G1 X10.408 Y73.97 E.02227
G1 X11.167 Y73.911 E.02387
G1 X18.774 Y73.807 E.23852
G1 X26.403 Y73.521 E.23938
G1 X34.024 Y73.055 E.23939
G1 X41.631 Y72.408 E.23938
G1 X49.208 Y71.582 E.23897
G1 X56.789 Y70.574 E.2398
G1 X63.858 Y69.463 E.22436
G1 X71.844 Y68.025 E.2544
G1 X79.363 Y66.473 E.24073
G1 X83.026 Y65.377 E.11987
G1 X86.631 Y64.118 E.11972
G1 X90.152 Y62.708 E.11892
G1 X93.629 Y61.131 E.11972
G1 X97.032 Y59.398 E.11972
G1 X100.33 Y57.526 E.11892
G1 X101.03 Y57.175 E.02455
G1 X101.73 Y56.984 E.02274
G1 X102.454 Y56.934 E.02274
G1 X103.173 Y57.027 E.02274
G1 X103.86 Y57.26 E.02274
G1 X104.488 Y57.622 E.02274
G1 X105.033 Y58.102 E.02274
G1 X105.491 Y58.703 E.02369
G1 X117.723 Y79.563 E.7582
G1 X118.408 Y81.101 E.05281
G1 X118.953 Y82.703 E.05305
G1 X119.349 Y84.348 E.05305
G1 X119.593 Y86.022 E.05305
G1 X119.684 Y87.727 E.05353
G1 X119.684 Y118.3 E.95858
G1 X119.617 Y118.891 E.01865
G1 X119.436 Y119.41 E.01726
G1 X119.143 Y119.876 E.01726
G1 X118.754 Y120.266 E.01726
G1 X118.287 Y120.559 E.01726
G1 X117.768 Y120.74 E.01726
G1 X117.177 Y120.807 E.01865
G1 X99.796 Y120.805 E.54496
M204 S1000
G1 X99.837 Y121.181 F10800
M204 S800
;TYPE:External perimeter
G1 F1200
G1 X99.717 Y121.224 E.00397
G1 X99.648 Y121.37 E.00507
G1 X99.648 Y136.544 E.47577
G1 X99.566 Y137.233 E.02175
G1 X99.334 Y137.86 E.02099
G1 X98.961 Y138.416 E.02099
G1 X98.468 Y138.869 E.02099
G1 X97.872 Y139.2 E.02138
G1 X93.263 Y140.782 E.1528
G1 X88.576 Y142.222 E.15373
G1 X83.844 Y143.508 E.15373
G1 X79.074 Y144.639 E.15373
G1 X74.269 Y145.615 E.15373
G1 X69.435 Y146.434 E.15373
G1 X64.577 Y147.095 E.15373
G1 X59.714 Y147.595 E.15327
G1 X51.486 Y147.586 E.25797
G1 X47.379 Y146.894 E.13059
G1 X43.282 Y146.018 E.13137
G1 X39.227 Y144.963 E.13137
G1 X35.222 Y143.733 E.13137
G1 X31.274 Y142.328 E.13137
G1 X27.392 Y140.753 E.13137
G1 X23.52 Y138.978 E.13355
G1 X19.852 Y137.101 E.1292
G1 X16.209 Y135.031 E.13137
G1 X12.66 Y132.804 E.13137
G1 X9.222 Y130.431 E.13097
G1 X8.576 Y129.876 E.02671
G1 X8.017 Y129.242 E.02651
G1 X7.549 Y128.537 E.02651
G1 X7.183 Y127.775 E.02651
G1 X6.936 Y127.005 E.02537
G1 X6.976 Y77.416 E1.55482
G1 X7.092 Y76.632 E.02486
G1 X7.351 Y75.893 E.02455
G1 X7.748 Y75.218 E.02455
G1 X8.266 Y74.631 E.02455
G1 X8.887 Y74.154 E.02455
G1 X9.588 Y73.805 E.02455
G1 X10.343 Y73.597 E.02455
G1 X11.15 Y73.535 E.02539
G1 X18.76 Y73.43 E.23862
G1 X26.38 Y73.145 E.2391
G1 X33.992 Y72.679 E.23911
G1 X41.59 Y72.033 E.2391
G1 X49.167 Y71.207 E.23897
G1 X56.731 Y70.202 E.23924
G1 X63.789 Y69.092 E.22403
G1 X71.765 Y67.656 E.2541
G1 X79.255 Y66.111 E.23978
G1 X82.901 Y65.021 E.11934
G1 X86.483 Y63.771 E.11892
G1 X90.012 Y62.358 E.11919
G1 X93.481 Y60.784 E.11946
G1 X96.861 Y59.062 E.11892
G1 X100.153 Y57.193 E.1187
G1 X100.895 Y56.821 E.02603
G1 X101.667 Y56.61 E.02509
G1 X102.465 Y56.555 E.02509
G1 X103.259 Y56.658 E.02509
G1 X104.016 Y56.914 E.02509
G1 X104.709 Y57.315 E.02509
G1 X105.31 Y57.843 E.02509
G1 X105.805 Y58.492 E.02558
G1 X118.058 Y79.39 E.75957
G1 X118.76 Y80.963 E.05401
G1 X119.316 Y82.598 E.05414
G1 X119.72 Y84.277 E.05414
G1 X119.969 Y85.985 E.05414
G1 X120.061 Y87.717 E.05439
G1 X120.061 Y118.321 E.95955
G1 X119.987 Y118.975 E.02065
G1 X119.777 Y119.575 E.01992
G1 X119.439 Y120.113 E.01992
G1 X118.99 Y120.562 E.01992
G1 X118.452 Y120.9 E.01992
G1 X117.852 Y121.11 E.01992
G1 X117.198 Y121.184 E.02065
G1 X99.897 Y121.181 E.54247
M204 S1000
G1 X99.75 Y121.089 F10800
;WIPE_START
G1 F8640
G1 X99.717 Y121.224 E-.04255
G1 X99.648 Y121.37 E-.03732
G1 X99.648 Y125.138 E-.87013
;WIPE_END
G1 E-.05 F2100
G1 Z.4 F720
G1 X106.299 Y60.304 F10800
G1 Z.2 F720
G1 E1 F2100
M204 S800
;TYPE:Solid infill
;WIDTH:0.421163
G1 F1200
G1 X103.396 Y57.401 E.12914
G1 X103.109 Y57.304 E.00952
G1 X102.712 Y57.253 E.01258
G1 X106.582 Y61.122 E.1721
G1 X107.34 Y62.415 E.04715
G1 X102.162 Y57.238 E.23029
G1 X101.778 Y57.264 E.01213
G1 X101.681 Y57.291 E.00316
G1 X108.098 Y63.708 E.28545
G1 X108.857 Y65.002 E.04715
G1 X101.26 Y57.405 E.33787
G1 X101.132 Y57.44 E.00419
M73 Q0 S169
G1 X100.885 Y57.564 E.0087
G1 X109.615 Y66.295 E.38832
G1 X110.373 Y67.588 E.04715
G1 X100.528 Y57.743 E.4379
G1 X100.184 Y57.934 E.01237
G1 X111.132 Y68.881 E.48693
G1 X111.89 Y70.175 E.04715
G1 X99.843 Y58.127 E.53583
G1 X99.502 Y58.321 E.01234
G1 X112.648 Y71.468 E.58474
G1 X113.407 Y72.761 E.04715
G1 X99.16 Y58.515 E.63365
G1 X98.819 Y58.708 E.01234
G1 X114.165 Y74.054 E.68256
G1 X114.923 Y75.347 E.04715
G1 X98.478 Y58.902 E.73146
G1 X98.137 Y59.096 E.01234
G1 X115.681 Y76.641 E.78037
G1 X116.44 Y77.934 E.04715
G1 X97.795 Y59.289 E.82928
G1 X97.454 Y59.483 E.01234
G1 X117.198 Y79.227 E.87819
G1 X117.471 Y79.692 E.01695
G1 X117.746 Y80.31 E.02129
G1 X97.111 Y59.675 E.91783
G1 X96.756 Y59.855 E.01251
G1 X118.165 Y81.264 E.95223
G1 X118.441 Y82.075 E.02693
G1 X96.402 Y60.036 E.98025
G1 X96.048 Y60.216 E.01251
G1 X118.703 Y82.872 E1.00767
G1 X118.873 Y83.576 E.02279
G1 X95.693 Y60.397 E1.03098
G1 X95.339 Y60.578 E.01251
G1 X119.042 Y84.281 E1.05429
G1 X119.147 Y84.92 E.02038
M73 P0 R168
G1 X94.985 Y60.758 E1.0747
G1 X94.63 Y60.939 E.01251
G1 X119.238 Y85.547 E1.09452
G1 X119.317 Y86.161 E.01948
G1 X94.276 Y61.119 E1.11381
G1 X93.922 Y61.3 E.01251
M73 P1 R168
M73 Q1 S169
G1 X119.348 Y86.726 E1.13091
G1 X119.378 Y87.291 E.01779
G1 X93.559 Y61.472 E1.14837
G1 X93.191 Y61.639 E.01271
G1 X119.401 Y87.849 E1.16578
G1 X119.401 Y88.384 E.01682
G1 X92.823 Y61.806 E1.18215
G1 X92.455 Y61.973 E.01271
G1 X119.401 Y88.919 E1.19851
G1 X119.401 Y89.454 E.01682
G1 X92.087 Y62.14 E1.21488
G1 X91.719 Y62.307 E.01271
G1 X119.401 Y89.989 E1.23125
G1 X119.401 Y90.524 E.01682
G1 X91.351 Y62.474 E1.24761
G1 X90.984 Y62.641 E.01271
G1 X119.401 Y91.059 E1.26398
G1 X119.401 Y91.594 E.01682
G1 X90.616 Y62.808 E1.28034
G1 X90.247 Y62.975 E.01271
G1 X119.401 Y92.129 E1.29672
G1 X119.401 Y92.663 E.01682
G1 X89.865 Y63.127 E1.31372
G1 X89.483 Y63.28 E.01294
G1 X119.401 Y93.198 E1.33071
G1 X119.401 Y93.733 E.01682
G1 X89.101 Y63.433 E1.3477
G1 X88.719 Y63.586 E.01294
G1 X119.401 Y94.268 E1.36469
G1 X119.401 Y94.803 E.01682
G1 X88.337 Y63.739 E1.38168
G1 X87.955 Y63.892 E.01294
G1 X119.401 Y95.338 E1.39868
G1 X119.401 Y95.873 E.01682
M73 Q1 S168
G1 X87.573 Y64.045 E1.41567
G1 X87.191 Y64.198 E.01294
G1 X119.401 Y96.408 E1.43266
G1 X119.401 Y96.943 E.01682
G1 X86.809 Y64.351 E1.44965
G1 X86.417 Y64.493 E.01313
G1 X119.401 Y97.478 E1.46711
G1 X119.401 Y98.013 E.01682
G1 X86.02 Y64.631 E1.48475
G1 X85.623 Y64.77 E.01321
G1 X119.401 Y98.548 E1.50239
G1 X119.401 Y99.082 E.01682
G1 X85.227 Y64.908 E1.52002
G1 X84.83 Y65.046 E.01321
G1 X119.401 Y99.617 E1.53766
G1 X119.401 Y100.152 E.01682
M73 P1 R167
G1 X84.434 Y65.185 E1.5553
G1 X84.037 Y65.323 E.01321
G1 X119.401 Y100.687 E1.57294
G1 X119.401 Y101.222 E.01682
G1 X83.641 Y65.461 E1.59058
G1 X83.244 Y65.6 E.01321
G1 X119.401 Y101.757 E1.60822
G1 X119.401 Y102.292 E.01682
G1 X82.838 Y65.729 E1.62629
G1 X82.426 Y65.852 E.01352
G1 X119.401 Y102.827 E1.6446
G1 X119.401 Y103.362 E.01682
G1 X82.014 Y65.975 E1.66292
G1 X81.602 Y66.098 E.01352
G1 X119.401 Y103.897 E1.68123
G1 X119.401 Y104.432 E.01682
G1 X81.191 Y66.221 E1.69955
G1 X80.779 Y66.344 E.01352
G1 X119.401 Y104.967 E1.71786
G1 X119.401 Y105.501 E.01682
G1 X80.367 Y66.467 E1.73618
G1 X79.955 Y66.591 E.01352
G1 X119.401 Y106.036 E1.75449
G1 X119.401 Y106.571 E.01682
G1 X79.544 Y66.714 E1.77281
G1 X79.109 Y66.814 E.01402
G1 X119.401 Y107.106 E1.79212
G1 X119.401 Y107.641 E.01682
G1 X78.666 Y66.906 E1.81184
G1 X78.222 Y66.997 E.01424
M73 Q1 S167
G1 X119.401 Y108.176 E1.83157
G1 X119.401 Y108.711 E.01682
G1 X77.779 Y67.089 E1.85129
G1 X77.336 Y67.18 E.01424
G1 X119.401 Y109.246 E1.87101
G1 X119.401 Y109.781 E.01682
M73 P2 R167
M73 Q2 S167
G1 X76.892 Y67.272 E1.89074
G1 X76.449 Y67.363 E.01424
G1 X119.401 Y110.316 E1.91046
G1 X119.401 Y110.851 E.01682
G1 X76.005 Y67.455 E1.93018
G1 X75.562 Y67.546 E.01424
G1 X119.401 Y111.386 E1.94991
G1 X119.401 Y111.92 E.01682
M73 P2 R166
G1 X75.118 Y67.638 E1.96963
G1 X74.675 Y67.729 E.01424
G1 X119.401 Y112.455 E1.98935
G1 X119.401 Y112.99 E.01682
G1 X74.232 Y67.821 E2.00908
G1 X73.788 Y67.912 E.01424
G1 X119.401 Y113.525 E2.0288
G1 X119.401 Y114.06 E.01682
G1 X73.345 Y68.004 E2.04852
G1 X72.901 Y68.095 E.01424
G1 X119.401 Y114.595 E2.06825
G1 X119.401 Y115.13 E.01682
G1 X72.458 Y68.187 E2.08797
G1 X72.014 Y68.278 E.01424
G1 X119.401 Y115.665 E2.10769
G1 X119.401 Y116.2 E.01682
G1 X71.564 Y68.363 E2.12772
G1 X71.111 Y68.444 E.01449
G1 X119.401 Y116.735 E2.14788
G1 X119.401 Y117.27 E.01682
G1 X70.658 Y68.526 E2.16805
G1 X70.204 Y68.608 E.01449
G1 X119.401 Y117.805 E2.18821
G1 X119.396 Y118.334 E.01665
M73 Q2 S166
G1 X69.751 Y68.689 E2.20812
G1 X69.298 Y68.771 E.01449
G1 X119.341 Y118.815 E2.22587
G1 X119.205 Y119.213 E.01325
G1 X68.844 Y68.852 E2.23997
G1 X68.391 Y68.934 E.01449
G1 X119.011 Y119.554 E2.25151
G1 X118.92 Y119.699 E.00538
G1 X118.771 Y119.849 E.00665
G1 X67.938 Y69.016 E2.26097
G1 X67.485 Y69.097 E.01449
M73 P2 R165
G1 X118.487 Y120.099 E2.26849
G1 X118.157 Y120.305 E.01221
G1 X67.031 Y69.179 E2.27399
G1 X66.578 Y69.261 E.01449
G1 X117.761 Y120.443 E2.27653
G1 X117.705 Y120.463 E.00187
G1 X117.292 Y120.509 E.01307
G1 X66.125 Y69.342 E2.27583
G1 X65.671 Y69.424 E.01449
G1 X116.772 Y120.524 E2.27286
G1 X116.236 Y120.524 E.01683
G1 X65.218 Y69.505 E2.26922
G1 X64.765 Y69.587 E.01449
G1 X115.701 Y120.524 E2.26559
G1 X115.166 Y120.524 E.01683
G1 X64.312 Y69.669 E2.26195
G1 X63.857 Y69.75 E.01451
G1 X114.631 Y120.524 E2.25835
G1 X114.096 Y120.524 E.01683
M73 P3 R165
M73 Q3 S166
G1 X63.395 Y69.822 E2.25512
G1 X62.933 Y69.895 E.01472
G1 X113.561 Y120.523 E2.25188
G1 X113.026 Y120.523 E.01683
M73 Q3 S165
G1 X62.471 Y69.968 E2.24865
G1 X62.008 Y70.04 E.01472
G1 X112.491 Y120.523 E2.24541
G1 X111.956 Y120.523 E.01683
G1 X61.546 Y70.113 E2.24218
G1 X61.084 Y70.185 E.01472
G1 X111.421 Y120.523 E2.23894
G1 X110.886 Y120.523 E.01683
G1 X60.622 Y70.258 E2.23571
G1 X60.159 Y70.331 E.01472
G1 X110.351 Y120.523 E2.23247
G1 X109.816 Y120.523 E.01683
M73 P3 R164
G1 X59.697 Y70.403 E2.22924
G1 X59.235 Y70.476 E.01472
G1 X109.281 Y120.523 E2.226
G1 X108.746 Y120.523 E.01683
G1 X58.772 Y70.549 E2.22277
G1 X58.31 Y70.621 E.01472
G1 X108.211 Y120.523 E2.21953
G1 X107.676 Y120.522 E.01683
G1 X57.848 Y70.694 E2.2163
G1 X57.386 Y70.767 E.01472
G1 X107.141 Y120.522 E2.21306
G1 X106.606 Y120.522 E.01683
G1 X56.923 Y70.839 E2.20983
G1 X56.453 Y70.904 E.01492
G1 X106.071 Y120.522 E2.20693
G1 X105.536 Y120.522 E.01683
G1 X55.981 Y70.967 E2.20413
G1 X55.509 Y71.03 E.01498
G1 X105.001 Y120.522 E2.20134
G1 X104.466 Y120.522 E.01683
G1 X55.037 Y71.093 E2.19854
G1 X54.565 Y71.155 E.01498
M73 Q3 S164
G1 X103.931 Y120.522 E2.19575
G1 X103.396 Y120.522 E.01683
G1 X54.093 Y71.218 E2.19295
G1 X53.621 Y71.281 E.01498
G1 X102.861 Y120.522 E2.19016
G1 X102.326 Y120.522 E.01683
G1 X53.148 Y71.344 E2.18736
G1 X52.676 Y71.406 E.01498
G1 X101.791 Y120.522 E2.18456
G1 X101.256 Y120.521 E.01683
G1 X52.204 Y71.469 E2.18177
G1 X51.732 Y71.532 E.01498
M73 P3 R163
G1 X100.721 Y120.521 E2.17897
G1 X100.186 Y120.521 E.01683
G1 X51.26 Y71.595 E2.17618
G1 X50.788 Y71.658 E.01498
