; generated by PrusaSlicer 2.5.0+MacOS-arm64 on 2023-04-24 at 13:20:54 UTC


;
;
; 

; external perimeters extrusion width = 0.45mm
; perimeters extrusion width = 0.45mm
; infill extrusion width = 0.45mm
; solid infill extrusion width = 0.45mm
; top infill extrusion width = 0.40mm
; first layer extrusion width = 0.42mm

; external perimeters extrusion width = 0.45mm
; perimeters extrusion width = 0.45mm
; infill extrusion width = 0.45mm
; solid infill extrusion width = 0.45mm
; top infill extrusion width = 0.40mm
; first layer extrusion width = 0.42mm

M73 P0 R170
M73 Q0 S171
M201 X1000 Y1000 Z200 E5000 ; sets maximum accelerations, mm/sec^2
M203 X200 Y200 Z12 E120 ; sets maximum feedrates, mm / sec
M204 P1250 R1250 T1250 ; sets acceleration (P, T) and retract acceleration (R), mm/sec^2
M205 X8.00 Y8.00 Z0.40 E4.50 ; sets the jerk limits, mm/sec
M205 S0 T0 ; sets the minimum extruding and travel feed rate, mm/sec
M107
;TYPE:Custom
M862.3 P "MK3S" ; printer model check
M862.1 P0.4 ; nozzle diameter check
M115 U3.12.1 ; tell printer latest fw version
G90 ; use absolute coordinates
M83 ; extruder relative mode
M104 S215 ; set extruder temp
M140 S60 ; set bed temp
M190 S60 ; wait for bed temp
M109 S215 ; wait for extruder temp
G28 W ; home all without mesh bed level
G80 ; mesh bed leveling

G1 Z0.2 F720
G1 Y-3 F1000 ; go outside print area
G92 E0
G1 X60 E9 F1000 ; intro line
G1 X100 E12.5 F1000 ; intro line

G92 E0
M221 S95

; Don't change E values below. Excessive value can damage the printer.
M907 E430 ; set extruder motor current
G21 ; set units to millimeters
G90 ; use absolute coordinates
M83 ; use relative distances for extrusion
M900 K0.05 ; Filament gcode LA 1.5
M900 K30 ; Filament gcode LA 1.0
M107
;LAYER_CHANGE
;Z:0.2
;HEIGHT:0.2
;BEFORE_LAYER_CHANGE
G92 E0.0
;0.2


G1 E-.8 F2100
G1 Z.4 F720
;AFTER_LAYER_CHANGE
;0.2
G1 X19.611 Y105.435 F10800
G1 Z.2 F720
G1 E.8 F2100
M204 S800
;TYPE:Skirt/Brim
;WIDTH:0.42
G1 F1200
G1 X100.666 Y90.358 E2.58502
G1 X101.979 Y90.257 E.0413
G1 X145.367 Y90.248 E1.36039
G1 X146.517 Y90.343 E.03619
G1 X237.844 Y107.33 E2.91258
G1 X239.3 Y107.769 E.04768
G1 X240.459 Y108.395 E.04133
G1 X241.143 Y108.92 E.02704
G1 X242.048 Y109.879 E.04132
G1 X242.753 Y110.992 E.04132
G1 X243.232 Y112.22 E.04133
G1 X243.491 Y113.86 E.05206
G1 X243.532 Y163.543 E1.55777
G1 X243.418 Y164.271 E.02311
G1 X243.022 Y165.433 E.0385
G1 X242.47 Y166.53 E.0385
G1 X241.773 Y167.541 E.0385
G1 X240.944 Y168.447 E.0385
G1 X240.06 Y169.189 E.03618
G1 X236.597 Y171.579 E.13194
G1 X232.946 Y173.873 E.13519
G1 X229.198 Y176.004 E.13519
G1 X225.558 Y177.87 E.12825
G1 X221.345 Y179.808 E.14539
G1 X217.446 Y181.39 E.13194
G1 X213.385 Y182.838 E.13519
G1 X209.164 Y184.135 E.13845
G1 X205.091 Y185.193 E.13193
G1 X201.092 Y186.051 E.12825
G1 X196.624 Y186.816 E.14213
G1 X50.952 Y186.864 E4.56744
G1 X46.308 Y186.112 E.14749
M73 Q0 S170
G1 X42.193 Y185.232 E.13194
G1 X38.02 Y184.15 E.13519
G1 X33.898 Y182.886 E.13519
G1 X29.834 Y181.442 E.13519
G1 X25.743 Y179.782 E.13845
G1 X21.917 Y178.031 E.13194
G1 X18.077 Y176.069 E.13519
G1 X14.327 Y173.941 E.13519
G1 X10.674 Y171.651 E.13519
G1 X7.124 Y169.204 E.13519
G1 X6.24 Y168.462 E.03618
G1 X5.411 Y167.556 E.0385
G1 X4.552 Y166.261 E.04871
G1 X4.041 Y165.145 E.0385
G1 X3.765 Y164.286 E.02828
G1 X3.652 Y163.558 E.02311
G1 X3.692 Y113.875 E1.55777
G1 X3.952 Y112.235 E.05206
G1 X4.431 Y111.008 E.04132
G1 X4.867 Y110.264 E.02704
G1 X6.04 Y108.935 E.05557
G1 X7.112 Y108.168 E.04132
G1 X8.311 Y107.62 E.04133
G1 X9.34 Y107.345 E.0334
G1 X19.552 Y105.446 E.32568
M204 S1000
; printing object sweep_case_v1.stl id:0 copy 0
;WIPE_START
G1 F8640
G1 X22.788 Y104.844 E-.76
;WIPE_END
G1 E-.04 F2100
G1 Z.6 F720
G1 X99.242 Y157.315 F10800
G1 Z.2 F720
G1 E.8 F2100
M204 S800
;TYPE:Perimeter
;WIDTH:0.419999
G1 F1200
G1 X99.039 Y157.382 E.00669
G1 X98.843 Y157.59 E.00898
G1 X98.774 Y157.861 E.00875
G1 X98.774 Y173.013 E.47507
G1 X98.7 Y173.635 E.01965
G1 X98.499 Y174.179 E.01818
G1 X98.176 Y174.66 E.01818
G1 X97.749 Y175.052 E.01818
G1 X97.221 Y175.346 E.01893
G1 X92.649 Y176.915 E.15156
G1 X87.974 Y178.351 E.15334
G1 X83.254 Y179.634 E.15334
G1 X78.496 Y180.762 E.15335
G1 X73.703 Y181.735 E.15334
G1 X68.881 Y182.552 E.15334
G1 X64.035 Y183.211 E.15334
G1 X59.198 Y183.709 E.15246
G1 X51.021 Y183.7 E.25638
G1 X46.953 Y183.014 E.12934
G1 X42.872 Y182.142 E.13086
G1 X38.833 Y181.092 E.13085
G1 X34.843 Y179.866 E.13086
G1 X30.911 Y178.467 E.13085
G1 X27.044 Y176.898 E.13085
G1 X23.187 Y175.129 E.13303
G1 X19.534 Y173.26 E.12868
G1 X15.905 Y171.198 E.13086
G1 X12.37 Y168.98 E.13085
G1 X8.955 Y166.623 E.13009
G1 X8.344 Y166.098 E.02527
G1 X7.819 Y165.503 E.02488
G1 X7.381 Y164.842 E.02488
G1 X7.037 Y164.127 E.02488
G1 X6.816 Y163.437 E.0227
G1 X6.856 Y113.935 E1.55211
G1 X6.962 Y113.214 E.02286
M73 P0 R169
G1 X7.198 Y112.544 E.02227
G1 X7.557 Y111.931 E.02227
G1 X8.027 Y111.399 E.02227
G1 X8.591 Y110.967 E.02227
G1 X9.226 Y110.65 E.02227
G1 X9.911 Y110.461 E.02227
G1 X10.67 Y110.403 E.02387
G1 X18.277 Y110.298 E.23852
G1 X25.906 Y110.012 E.23938
G1 X33.527 Y109.546 E.23939
G1 X41.134 Y108.899 E.23938
G1 X48.711 Y108.073 E.23897
G1 X56.292 Y107.065 E.2398
G1 X63.361 Y105.954 E.22436
G1 X71.347 Y104.516 E.2544
G1 X78.866 Y102.964 E.24073
G1 X82.529 Y101.868 E.11987
G1 X86.134 Y100.609 E.11972
G1 X89.655 Y99.199 E.11892
G1 X93.132 Y97.622 E.11972
G1 X96.535 Y95.889 E.11972
G1 X99.833 Y94.017 E.11892
G1 X100.533 Y93.666 E.02455
G1 X101.233 Y93.475 E.02274
G1 X101.957 Y93.425 E.02274
G1 X102.676 Y93.518 E.02274
G1 X103.363 Y93.751 E.02274
G1 X103.991 Y94.114 E.02274
G1 X104.536 Y94.593 E.02274
G1 X104.994 Y95.194 E.02369
G1 X117.226 Y116.054 E.7582
G1 X117.911 Y117.592 E.05281
G1 X118.456 Y119.194 E.05305
G1 X118.852 Y120.839 E.05305
G1 X119.096 Y122.514 E.05305
G1 X119.187 Y124.218 E.05353
G1 X119.187 Y154.791 E.95858
G1 X119.12 Y155.382 E.01865
G1 X118.938 Y155.902 E.01726
G1 X118.646 Y156.368 E.01726
G1 X118.256 Y156.757 E.01726
G1 X117.79 Y157.05 E.01726
G1 X117.271 Y157.231 E.01726
G1 X116.68 Y157.298 E.01865
G1 X99.299 Y157.297 E.54496
M204 S1000
G1 X99.34 Y157.672 F10800
M204 S800
;TYPE:External perimeter
G1 F1200
G1 X99.22 Y157.715 E.00397
G1 X99.151 Y157.861 E.00507
G1 X99.151 Y173.035 E.47577
G1 X99.069 Y173.724 E.02175
G1 X98.837 Y174.352 E.02099
G1 X98.464 Y174.907 E.02099
G1 X97.971 Y175.36 E.02099
G1 X97.375 Y175.691 E.02138
G1 X92.765 Y177.273 E.1528
G1 X88.079 Y178.713 E.15373
G1 X83.347 Y179.999 E.15373
G1 X78.577 Y181.131 E.15373
G1 X73.772 Y182.106 E.15373
G1 X68.938 Y182.925 E.15373
G1 X64.079 Y183.586 E.15373
G1 X59.217 Y184.087 E.15327
G1 X50.989 Y184.077 E.25797
G1 X46.882 Y183.385 E.13059
G1 X42.785 Y182.509 E.13137
G1 X38.73 Y181.455 E.13137
G1 X34.725 Y180.224 E.13137
G1 X30.777 Y178.82 E.13137
G1 X26.895 Y177.244 E.13137
G1 X23.023 Y175.469 E.13355
G1 X19.355 Y173.592 E.1292
G1 X15.712 Y171.522 E.13137
G1 X12.163 Y169.295 E.13137
G1 X8.725 Y166.922 E.13097
G1 X8.079 Y166.367 E.02671
G1 X7.519 Y165.733 E.02651
G1 X7.052 Y165.029 E.02651
G1 X6.686 Y164.267 E.02651
G1 X6.439 Y163.496 E.02537
G1 X6.479 Y113.907 E1.55482
G1 X6.594 Y113.123 E.02486
G1 X6.854 Y112.384 E.02455
G1 X7.251 Y111.709 E.02455
G1 X7.769 Y111.122 E.02455
G1 X8.39 Y110.645 E.02455
G1 X9.091 Y110.296 E.02455
G1 X9.846 Y110.088 E.02455
G1 X10.653 Y110.026 E.02539
G1 X18.263 Y109.921 E.23862
G1 X25.883 Y109.636 E.2391
G1 X33.495 Y109.17 E.23911
G1 X41.093 Y108.524 E.2391
G1 X48.67 Y107.699 E.23897
G1 X56.234 Y106.693 E.23924
G1 X63.292 Y105.583 E.22403
G1 X71.268 Y104.147 E.2541
G1 X78.758 Y102.603 E.23978
G1 X82.404 Y101.512 E.11934
G1 X85.985 Y100.262 E.11892
G1 X89.515 Y98.849 E.11919
G1 X92.984 Y97.275 E.11946
G1 X96.363 Y95.553 E.11892
G1 X99.656 Y93.684 E.1187
G1 X100.398 Y93.312 E.02603
G1 X101.17 Y93.101 E.02509
G1 X101.968 Y93.046 E.02509
G1 X102.762 Y93.149 E.02509
G1 X103.519 Y93.406 E.02509
G1 X104.212 Y93.806 E.02509
G1 X104.813 Y94.334 E.02509
G1 X105.308 Y94.983 E.02558
G1 X117.561 Y115.881 E.75957
G1 X118.263 Y117.454 E.05401
G1 X118.819 Y119.089 E.05414
G1 X119.223 Y120.768 E.05414
G1 X119.472 Y122.476 E.05414
G1 X119.564 Y124.208 E.05439
G1 X119.564 Y154.812 E.95955
G1 X119.49 Y155.466 E.02065
G1 X119.28 Y156.066 E.01992
G1 X118.942 Y156.604 E.01992
G1 X118.493 Y157.054 E.01992
G1 X117.955 Y157.392 E.01992
G1 X117.355 Y157.601 E.01992
G1 X116.701 Y157.675 E.02065
G1 X99.4 Y157.672 E.54247
M204 S1000
G1 X99.253 Y157.58 F10800
;WIPE_START
G1 F8640
G1 X99.22 Y157.715 E-.04255
G1 X99.151 Y157.861 E-.03732
G1 X99.151 Y160.806 E-.68013
;WIPE_END
G1 E-.04 F2100
G1 Z.6 F720
G1 X105.802 Y96.795 F10800
G1 Z.2 F720
G1 E.8 F2100
M204 S800
;TYPE:Solid infill
;WIDTH:0.421163
G1 F1200
G1 X102.899 Y93.892 E.12914
G1 X102.612 Y93.795 E.00952
G1 X102.215 Y93.744 E.01258
G1 X106.085 Y97.613 E.1721
G1 X106.843 Y98.906 E.04715
G1 X101.665 Y93.729 E.23029
G1 X101.281 Y93.755 E.01213
G1 X101.184 Y93.782 E.00316
G1 X107.601 Y100.2 E.28545
G1 X108.36 Y101.493 E.04715
G1 X100.763 Y93.897 E.33787
G1 X100.635 Y93.932 E.00419
G1 X100.387 Y94.056 E.0087
G1 X109.118 Y102.786 E.38832
G1 X109.876 Y104.079 E.04715
G1 X100.031 Y94.234 E.4379
G1 X99.687 Y94.425 E.01237
G1 X110.635 Y105.372 E.48693
G1 X111.393 Y106.666 E.04715
G1 X99.346 Y94.619 E.53583
G1 X99.005 Y94.812 E.01234
G1 X112.151 Y107.959 E.58474
G1 X112.909 Y109.252 E.04715
G1 X98.663 Y95.006 E.63365
G1 X98.322 Y95.2 E.01234
G1 X113.668 Y110.545 E.68256
G1 X114.426 Y111.839 E.04715
G1 X97.981 Y95.393 E.73146
G1 X97.639 Y95.587 E.01234
M73 Q0 S169
G1 X115.184 Y113.132 E.78037
G1 X115.943 Y114.425 E.04715
G1 X97.298 Y95.781 E.82928
G1 X96.957 Y95.974 E.01234
G1 X116.701 Y115.718 E.87819
G1 X116.974 Y116.183 E.01695
G1 X117.249 Y116.801 E.02129
G1 X96.614 Y96.166 E.91783
G1 X96.259 Y96.346 E.01251
G1 X117.668 Y117.755 E.95223
G1 X117.944 Y118.566 E.02693
G1 X95.905 Y96.527 E.98025
G1 X95.551 Y96.708 E.01251
G1 X118.206 Y119.363 E1.00767
G1 X118.376 Y120.067 E.02279
G1 X95.196 Y96.888 E1.03098
G1 X94.842 Y97.069 E.01251
G1 X118.545 Y120.772 E1.05429
G1 X118.65 Y121.412 E.02038
G1 X94.488 Y97.249 E1.0747
G1 X94.133 Y97.43 E.01251
G1 X118.741 Y122.038 E1.09452
G1 X118.82 Y122.652 E.01948
G1 X93.779 Y97.61 E1.11381
G1 X93.424 Y97.791 E.01251
M73 P1 R169
M73 Q1 S169
G1 X118.85 Y123.217 E1.13091
G1 X118.88 Y123.782 E.01779
G1 X93.062 Y97.963 E1.14837
G1 X92.694 Y98.13 E.01271
M73 P1 R168
G1 X118.904 Y124.34 E1.16578
G1 X118.904 Y124.875 E.01682
G1 X92.326 Y98.297 E1.18215
G1 X91.958 Y98.464 E.01271
G1 X118.904 Y125.41 E1.19851
G1 X118.904 Y125.945 E.01682
G1 X91.59 Y98.631 E1.21488
G1 X91.222 Y98.798 E.01271
G1 X118.904 Y126.48 E1.23125
G1 X118.904 Y127.015 E.01682
G1 X90.854 Y98.965 E1.24761
G1 X90.486 Y99.132 E.01271
G1 X118.904 Y127.55 E1.26398
G1 X118.904 Y128.085 E.01682
G1 X90.118 Y99.299 E1.28034
G1 X89.75 Y99.466 E.01271
G1 X118.904 Y128.62 E1.29672
G1 X118.904 Y129.155 E.01682
G1 X89.368 Y99.619 E1.31372
G1 X88.986 Y99.771 E.01294
G1 X118.904 Y129.69 E1.33071
G1 X118.904 Y130.224 E.01682
G1 X88.604 Y99.924 E1.3477
G1 X88.222 Y100.077 E.01294
G1 X118.904 Y130.759 E1.36469
G1 X118.904 Y131.294 E.01682
G1 X87.84 Y100.23 E1.38168
G1 X87.458 Y100.383 E.01294
G1 X118.904 Y131.829 E1.39868
G1 X118.904 Y132.364 E.01682
G1 X87.076 Y100.536 E1.41567
G1 X86.694 Y100.689 E.01294
G1 X118.904 Y132.899 E1.43266
G1 X118.904 Y133.434 E.01682
G1 X86.312 Y100.842 E1.44965
G1 X85.919 Y100.984 E.01313
M73 Q1 S168
G1 X118.904 Y133.969 E1.46711
G1 X118.904 Y134.504 E.01682
G1 X85.523 Y101.123 E1.48475
G1 X85.126 Y101.261 E.01321
G1 X118.904 Y135.039 E1.50239
G1 X118.904 Y135.574 E.01682
G1 X84.73 Y101.399 E1.52002
G1 X84.333 Y101.538 E.01321
G1 X118.904 Y136.109 E1.53766
G1 X118.904 Y136.643 E.01682
G1 X83.937 Y101.676 E1.5553
G1 X83.54 Y101.814 E.01321
G1 X118.904 Y137.178 E1.57294
G1 X118.904 Y137.713 E.01682
G1 X83.143 Y101.953 E1.59058
G1 X82.747 Y102.091 E.01321
G1 X118.904 Y138.248 E1.60822
G1 X118.904 Y138.783 E.01682
M73 P1 R167
G1 X82.341 Y102.22 E1.62629
G1 X81.929 Y102.343 E.01352
G1 X118.904 Y139.318 E1.6446
G1 X118.904 Y139.853 E.01682
G1 X81.517 Y102.466 E1.66292
G1 X81.105 Y102.589 E.01352
G1 X118.904 Y140.388 E1.68123
G1 X118.904 Y140.923 E.01682
G1 X80.694 Y102.712 E1.69955
G1 X80.282 Y102.835 E.01352
G1 X118.904 Y141.458 E1.71786
G1 X118.904 Y141.993 E.01682
G1 X79.87 Y102.959 E1.73618
G1 X79.458 Y103.082 E.01352
G1 X118.904 Y142.528 E1.75449
G1 X118.904 Y143.062 E.01682
G1 X79.046 Y103.205 E1.77281
G1 X78.612 Y103.305 E.01402
G1 X118.904 Y143.597 E1.79212
G1 X118.904 Y144.132 E.01682
G1 X78.169 Y103.397 E1.81184
G1 X77.725 Y103.488 E.01424
G1 X118.904 Y144.667 E1.83157
G1 X118.904 Y145.202 E.01682
G1 X77.282 Y103.58 E1.85129
G1 X76.838 Y103.671 E.01424
G1 X118.904 Y145.737 E1.87101
G1 X118.904 Y146.272 E.01682
M73 P2 R167
M73 Q2 S167
G1 X76.395 Y103.763 E1.89074
G1 X75.952 Y103.854 E.01424
G1 X118.904 Y146.807 E1.91046
G1 X118.904 Y147.342 E.01682
G1 X75.508 Y103.946 E1.93018
G1 X75.065 Y104.037 E.01424
G1 X118.904 Y147.877 E1.94991
G1 X118.904 Y148.412 E.01682
G1 X74.621 Y104.129 E1.96963
G1 X74.178 Y104.22 E.01424
G1 X118.904 Y148.947 E1.98935
G1 X118.904 Y149.481 E.01682
G1 X73.734 Y104.312 E2.00908
G1 X73.291 Y104.403 E.01424
M73 P2 R166
G1 X118.904 Y150.016 E2.0288
G1 X118.904 Y150.551 E.01682
G1 X72.848 Y104.495 E2.04852
G1 X72.404 Y104.586 E.01424
G1 X118.904 Y151.086 E2.06825
G1 X118.904 Y151.621 E.01682
G1 X71.961 Y104.678 E2.08797
G1 X71.517 Y104.769 E.01424
G1 X118.904 Y152.156 E2.10769
G1 X118.904 Y152.691 E.01682
G1 X71.067 Y104.854 E2.12772
G1 X70.614 Y104.935 E.01449
G1 X118.904 Y153.226 E2.14788
G1 X118.904 Y153.761 E.01682
G1 X70.16 Y105.017 E2.16805
G1 X69.707 Y105.099 E.01449
G1 X118.904 Y154.296 E2.18821
G1 X118.898 Y154.825 E.01665
G1 X69.254 Y105.18 E2.20812
G1 X68.801 Y105.262 E.01449
G1 X118.844 Y155.306 E2.22587
G1 X118.708 Y155.704 E.01325
M73 Q2 S166
G1 X68.347 Y105.344 E2.23997
G1 X67.894 Y105.425 E.01449
G1 X118.514 Y156.045 E2.25151
G1 X118.423 Y156.19 E.00538
G1 X118.274 Y156.34 E.00665
G1 X67.441 Y105.507 E2.26097
G1 X66.987 Y105.588 E.01449
G1 X117.989 Y156.591 E2.26849
G1 X117.66 Y156.796 E.01221
G1 X66.534 Y105.67 E2.27399
G1 X66.081 Y105.752 E.01449
G1 X117.263 Y156.934 E2.27653
G1 X117.207 Y156.954 E.00187
M73 P2 R165
G1 X116.795 Y157 E.01307
G1 X65.628 Y105.833 E2.27583
G1 X65.174 Y105.915 E.01449
G1 X116.274 Y157.015 E2.27286
G1 X115.739 Y157.015 E.01683
G1 X64.721 Y105.997 E2.26922
G1 X64.268 Y106.078 E.01449
G1 X115.204 Y157.015 E2.26559
G1 X114.669 Y157.015 E.01683
G1 X63.814 Y106.16 E2.26195
G1 X63.36 Y106.241 E.01451
G1 X114.134 Y157.015 E2.25835
G1 X113.599 Y157.015 E.01683
M73 P3 R165
M73 Q3 S166
G1 X62.898 Y106.313 E2.25512
G1 X62.436 Y106.386 E.01472
G1 X113.064 Y157.015 E2.25188
G1 X112.529 Y157.015 E.01683
G1 X61.974 Y106.459 E2.24865
G1 X61.511 Y106.531 E.01472
G1 X111.994 Y157.014 E2.24541
G1 X111.459 Y157.014 E.01683
M73 Q3 S165
G1 X61.049 Y106.604 E2.24218
G1 X60.587 Y106.677 E.01472
G1 X110.924 Y157.014 E2.23894
G1 X110.389 Y157.014 E.01683
G1 X60.124 Y106.749 E2.23571
G1 X59.662 Y106.822 E.01472
G1 X109.854 Y157.014 E2.23247
G1 X109.319 Y157.014 E.01683
G1 X59.2 Y106.895 E2.22924
G1 X58.738 Y106.967 E.01472
G1 X108.784 Y157.014 E2.226
G1 X108.249 Y157.014 E.01683
G1 X58.275 Y107.04 E2.22277
G1 X57.813 Y107.112 E.01472
M73 P3 R164
G1 X107.714 Y157.014 E2.21953
G1 X107.179 Y157.014 E.01683
G1 X57.351 Y107.185 E2.2163
G1 X56.889 Y107.258 E.01472
G1 X106.644 Y157.014 E2.21306
G1 X106.109 Y157.013 E.01683
G1 X56.426 Y107.33 E2.20983
G1 X55.956 Y107.395 E.01492
G1 X105.574 Y157.013 E2.20693
G1 X105.039 Y157.013 E.01683
G1 X55.484 Y107.458 E2.20413
G1 X55.012 Y107.521 E.01498
G1 X104.504 Y157.013 E2.20134
G1 X103.969 Y157.013 E.01683
G1 X54.54 Y107.584 E2.19854
G1 X54.068 Y107.647 E.01498
G1 X103.434 Y157.013 E2.19575
G1 X102.899 Y157.013 E.01683
G1 X53.596 Y107.709 E2.19295
G1 X53.124 Y107.772 E.01498
M73 Q3 S164
G1 X102.364 Y157.013 E2.19016
G1 X101.829 Y157.013 E.01683
G1 X52.651 Y107.835 E2.18736
G1 X52.179 Y107.898 E.01498
G1 X101.294 Y157.013 E2.18456
G1 X100.759 Y157.013 E.01683
