; generated by PrusaSlicer 2.5.0+MacOS-arm64 on 2023-04-26 at 11:40:44 UTC


;
;
; 

; external perimeters extrusion width = 0.45mm
; perimeters extrusion width = 0.45mm
; infill extrusion width = 0.45mm
; solid infill extrusion width = 0.45mm
; top infill extrusion width = 0.40mm
; first layer extrusion width = 0.42mm

M73 P0 R85
M73 Q0 S85
M201 X1000 Y1000 Z200 E5000 ; sets maximum accelerations, mm/sec^2
M203 X200 Y200 Z12 E120 ; sets maximum feedrates, mm / sec
M204 P1250 R1250 T1250 ; sets acceleration (P, T) and retract acceleration (R), mm/sec^2
M205 X8.00 Y8.00 Z0.40 E4.50 ; sets the jerk limits, mm/sec
M205 S0 T0 ; sets the minimum extruding and travel feed rate, mm/sec
M107
;TYPE:Custom
M862.3 P "MK3S" ; printer model check
M862.1 P0.4 ; nozzle diameter check
M115 U3.12.1 ; tell printer latest fw version
G90 ; use absolute coordinates
M83 ; extruder relative mode
M104 S240 ; set extruder temp
M140 S85 ; set bed temp
M190 S85 ; wait for bed temp
M109 S240 ; wait for extruder temp
G28 W ; home all without mesh bed level
G80 ; mesh bed leveling

G1 Z0.2 F720
G1 Y-3 F1000 ; go outside print area
G92 E0
G1 X60 E9 F1000 ; intro line
G1 X100 E12.5 F1000 ; intro line

G92 E0
M221 S95

; Don't change E values below. Excessive value can damage the printer.
M907 E430 ; set extruder motor current
G21 ; set units to millimeters
G90 ; use absolute coordinates
M83 ; use relative distances for extrusion
M900 K0.08 ; Filament gcode LA 1.5
M900 K45 ; Filament gcode LA 1.0
M107
;LAYER_CHANGE
;Z:0.2
;HEIGHT:0.2
;BEFORE_LAYER_CHANGE
G92 E0.0
;0.2


G1 E-1 F2100
G1 Z.2 F720
;AFTER_LAYER_CHANGE
;0.2
G1 Z.4
G1 X130.7 Y76.763 F10800
G1 Z.2 F720
G1 E1 F2100
M204 S800
;TYPE:Skirt/Brim
;WIDTH:0.42
G1 F1200
G1 X142.392 Y56.856 E.72388
G1 X142.927 Y56.155 E.02764
G1 X143.897 Y55.24 E.04181
G1 X145.053 Y54.515 E.04278
G1 X146.772 Y53.933 E.05691
G1 X147.646 Y53.82 E.02764
G1 X148.994 Y53.867 E.0423
G1 X240.591 Y70.888 E2.92113
G1 X242.047 Y71.327 E.04768
G1 X243.207 Y71.953 E.04133
G1 X243.891 Y72.478 E.02704
G1 X244.796 Y73.436 E.04132
G1 X245.501 Y74.55 E.04132
G1 X245.979 Y75.778 E.04133
G1 X246.239 Y77.418 E.05206
G1 X246.28 Y127.101 E1.55777
G1 X246.166 Y127.829 E.02311
G1 X245.77 Y128.991 E.0385
G1 X245.217 Y130.088 E.0385
G1 X244.52 Y131.099 E.0385
G1 X243.691 Y132.004 E.0385
G1 X242.808 Y132.747 E.03618
G1 X239.344 Y135.137 E.13194
G1 X235.693 Y137.43 E.13519
G1 X231.946 Y139.562 E.13519
G1 X228.305 Y141.427 E.12825
G1 X224.093 Y143.366 E.14539
G1 X220.194 Y144.948 E.13194
G1 X216.132 Y146.396 E.13519
G1 X211.911 Y147.692 E.13845
G1 X207.839 Y148.751 E.13193
G1 X203.84 Y149.609 E.12825
G1 X199.372 Y150.374 E.14213
G1 X190.45 Y150.404 E.27973
G1 X185.483 Y149.891 E.15657
G1 X180.611 Y149.228 E.15415
G1 X175.611 Y148.382 E.159
G1 X170.793 Y147.403 E.15415
G1 X165.934 Y146.252 E.15657
G1 X161.115 Y144.943 E.15658
G1 X156.341 Y143.478 E.15657
G1 X151.617 Y141.859 E.15657
G1 X150.565 Y141.316 E.03713
G1 X150.136 Y141.012 E.01647
G1 X128.986 Y122.085 E.88992
G1 X128.3 Y121.107 E.03745
G1 X128.035 Y120.573 E.01868
G1 X127.677 Y119.367 E.03945
G1 X127.58 Y118.379 E.03113
G1 X127.58 Y87.735 E.96081
G1 X127.677 Y85.852 E.05913
M73 P0 R84
G1 X127.953 Y83.89 E.06213
G1 X128.468 Y81.752 E.06894
G1 X129.115 Y79.879 E.06213
G1 X129.954 Y78.034 E.06357
G1 X130.67 Y76.815 E.04431
M204 S1000
; printing object sweep_case_v1.stl id:0 copy 0
;WIPE_START
G1 F8640
G1 X132.753 Y73.267 E-.95
;WIPE_END
G1 E-.05 F2100
G1 Z.4 F720
G1 X151.001 Y121.036 F10800
G1 Z.2 F720
G1 E1 F2100
M204 S800
;TYPE:Perimeter
;WIDTH:0.419999
G1 F1200
G1 X150.868 Y120.91 E.00576
G1 X150.592 Y120.838 E.00894
G1 X133.252 Y120.841 E.54368
G1 X132.66 Y120.774 E.01865
G1 X132.141 Y120.592 E.01726
G1 X131.675 Y120.3 E.01726
G1 X131.286 Y119.91 E.01726
G1 X130.993 Y119.444 E.01726
G1 X130.811 Y118.925 E.01726
G1 X130.744 Y118.334 E.01865
G1 X130.744 Y87.761 E.95858
G1 X130.835 Y86.056 E.05353
G1 X131.079 Y84.382 E.05305
G1 X131.475 Y82.737 E.05305
G1 X132.02 Y81.135 E.05305
G1 X132.706 Y79.596 E.05281
G1 X144.937 Y58.736 E.7582
G1 X145.396 Y58.136 E.02369
G1 X145.94 Y57.656 E.02274
G1 X146.568 Y57.293 E.02274
G1 X147.255 Y57.061 E.02274
G1 X147.975 Y56.968 E.02274
G1 X148.698 Y57.018 E.02274
G1 X149.398 Y57.209 E.02274
G1 X150.098 Y57.56 E.02455
G1 X153.397 Y59.432 E.11892
G1 X156.799 Y61.164 E.11972
G1 X160.253 Y62.732 E.11892
G1 X163.798 Y64.152 E.11972
G1 X167.403 Y65.411 E.11972
G1 X171.113 Y66.519 E.12142
G1 X178.599 Y68.061 E.23963
G1 X186.582 Y69.499 E.25436
G1 X193.65 Y70.61 E.22433
G1 X201.22 Y71.616 E.23944
G1 X208.81 Y72.443 E.23939
G1 X216.404 Y73.088 E.23896
G1 X224.025 Y73.555 E.23939
G1 X231.654 Y73.841 E.23938
G1 X239.261 Y73.945 E.23852
G1 X240.02 Y74.004 E.02387
G1 X240.705 Y74.193 E.02227
G1 X241.34 Y74.509 E.02227
G1 X241.904 Y74.942 E.02227
G1 X242.374 Y75.474 E.02227
G1 X242.733 Y76.086 E.02227
G1 X242.969 Y76.756 E.02227
G1 X243.075 Y77.478 E.02286
G1 X243.115 Y126.98 E1.5521
G1 X242.894 Y127.669 E.0227
M73 Q0 S84
G1 X242.55 Y128.385 E.02488
G1 X242.112 Y129.046 E.02488
G1 X241.587 Y129.641 E.02488
G1 X240.976 Y130.166 E.02527
G1 X237.561 Y132.523 E.13009
G1 X234.026 Y134.741 E.13085
G1 X230.397 Y136.803 E.13086
G1 X226.744 Y138.672 E.12868
G1 X222.887 Y140.441 E.13303
G1 X219.02 Y142.01 E.13085
G1 X215.088 Y143.409 E.13086
G1 X211.099 Y144.634 E.13086
G1 X207.059 Y145.685 E.13085
G1 X202.978 Y146.557 E.13086
G1 X198.91 Y147.243 E.12934
G1 X190.734 Y147.252 E.25638
G1 X185.897 Y146.754 E.15246
G1 X181.05 Y146.095 E.15334
G1 X176.228 Y145.278 E.15334
G1 X171.436 Y144.305 E.15334
G1 X166.677 Y143.176 E.15335
G1 X161.958 Y141.893 E.15334
G1 X157.282 Y140.457 E.15334
G1 X152.71 Y138.888 E.15156
G1 X152.182 Y138.595 E.01893
G1 X151.756 Y138.203 E.01818
G1 X151.433 Y137.721 E.01818
G1 X151.231 Y137.178 E.01818
G1 X151.158 Y136.555 E.01965
G1 X151.157 Y121.403 E.47507
G1 X151.069 Y121.099 E.00993
G1 X151.045 Y121.077 E.00103
M204 S1000
G1 X150.737 Y121.284 F10800
M204 S800
;TYPE:External perimeter
G1 F1200
G1 X150.592 Y121.215 E.00505
G1 X133.23 Y121.218 E.54435
G1 X132.576 Y121.144 E.02065
G1 X131.976 Y120.934 E.01992
G1 X131.438 Y120.596 E.01992
G1 X130.989 Y120.147 E.01992
G1 X130.651 Y119.609 E.01992
G1 X130.441 Y119.009 E.01992
G1 X130.367 Y118.355 E.02065
G1 X130.367 Y87.751 E.95955
G1 X130.459 Y86.019 E.05439
G1 X130.708 Y84.31 E.05414
G1 X131.112 Y82.632 E.05414
G1 X131.668 Y80.997 E.05414
G1 X132.37 Y79.424 E.05401
G1 X144.624 Y58.526 E.75957
G1 X145.118 Y57.877 E.02558
G1 X145.719 Y57.349 E.02509
G1 X146.412 Y56.948 E.02509
G1 X147.17 Y56.692 E.02509
G1 X147.963 Y56.589 E.02509
G1 X148.761 Y56.644 E.02509
G1 X149.533 Y56.855 E.02509
G1 X150.276 Y57.227 E.02603
G1 X153.568 Y59.096 E.1187
G1 X156.947 Y60.817 E.11892
G1 X160.409 Y62.389 E.11919
G1 X163.946 Y63.805 E.11946
G1 X167.535 Y65.057 E.11919
G1 X171.189 Y66.149 E.11959
G1 X178.663 Y67.69 E.23926
G1 X186.639 Y69.126 E.2541
G1 X193.701 Y70.236 E.22415
G1 X201.261 Y71.241 E.23912
G1 X208.838 Y72.067 E.23897
G1 X216.436 Y72.713 E.2391
M73 P1 R84
M73 Q1 S84
G1 X224.048 Y73.179 E.23911
G1 X231.669 Y73.464 E.2391
G1 X239.278 Y73.568 E.23862
G1 X240.086 Y73.631 E.02539
G1 X240.84 Y73.839 E.02455
G1 X241.541 Y74.188 E.02455
G1 X242.162 Y74.665 E.02455
G1 X242.681 Y75.252 E.02455
G1 X243.077 Y75.927 E.02455
G1 X243.337 Y76.666 E.02455
G1 X243.452 Y77.45 E.02486
G1 X243.492 Y127.039 E1.55482
G1 X243.245 Y127.809 E.02537
G1 X242.879 Y128.571 E.02651
G1 X242.412 Y129.276 E.02651
G1 X241.852 Y129.91 E.02651
G1 X241.207 Y130.465 E.02671
G1 X237.769 Y132.838 E.13097
G1 X234.22 Y135.065 E.13137
G1 X230.577 Y137.135 E.13137
G1 X226.908 Y139.011 E.1292
G1 X223.037 Y140.787 E.13355
G1 X219.154 Y142.362 E.13137
G1 X215.207 Y143.767 E.13137
G1 X211.201 Y144.997 E.13137
G1 X207.146 Y146.052 E.13137
G1 X203.049 Y146.928 E.13137
G1 X198.942 Y147.62 E.13059
G1 X190.714 Y147.629 E.25797
G1 X185.852 Y147.128 E.15327
G1 X180.994 Y146.468 E.15373
G1 X176.159 Y145.649 E.15373
G1 X171.355 Y144.673 E.15373
G1 X166.584 Y143.542 E.15373
G1 X161.853 Y142.256 E.15373
G1 X157.166 Y140.816 E.15373
G1 X152.556 Y139.234 E.1528
G1 X151.96 Y138.903 E.02138
G1 X151.467 Y138.45 E.02099
G1 X151.095 Y137.894 E.02099
G1 X150.862 Y137.267 E.02099
G1 X150.781 Y136.578 E.02175
G1 X150.78 Y121.403 E.47577
G1 X150.758 Y121.34 E.0021
M204 S1000
G1 X150.784 Y121.13 F10800
;WIPE_START
G1 F8640
G1 X150.592 Y121.215 E-.04803
G1 X146.685 Y121.216 E-.90197
;WIPE_END
G1 E-.05 F2100
G1 Z.4 F720
G1 X242.867 Y76.839 F10800
G1 Z.2 F720
G1 E1 F2100
M204 S800
;TYPE:Solid infill
;WIDTH:0.420334
G1 F1200
G1 X240.441 Y74.413 E.10768
G1 X239.971 Y74.284 E.01528
G1 X239.761 Y74.267 E.00661
G1 X242.758 Y77.264 E.13299
G1 X242.792 Y77.498 E.00744
G1 X242.792 Y77.832 E.01048
G1 X239.187 Y74.227 E.16
G1 X238.646 Y74.22 E.01699
G1 X242.793 Y78.366 E.18404
G1 X242.793 Y78.901 E.01676
G1 X238.105 Y74.212 E.20808
G1 X237.564 Y74.205 E.01699
G1 X242.794 Y79.435 E.23211
G1 X242.794 Y79.969 E.01676
G1 X237.022 Y74.197 E.25615
G1 X236.481 Y74.19 E.01699
G1 X242.794 Y80.503 E.28019
G1 X242.795 Y81.037 E.01676
G1 X235.94 Y74.182 E.30423
G1 X235.399 Y74.175 E.01699
G1 X242.795 Y81.572 E.32827
G1 X242.796 Y82.106 E.01676
G1 X234.858 Y74.168 E.3523
G1 X234.316 Y74.16 E.01699
G1 X242.796 Y82.64 E.37634
G1 X242.797 Y83.174 E.01676
G1 X233.775 Y74.153 E.40038
G1 X233.234 Y74.145 E.01699
G1 X242.797 Y83.708 E.42442
G1 X242.798 Y84.242 E.01676
G1 X232.693 Y74.138 E.44846
G1 X232.152 Y74.13 E.01699
G1 X242.798 Y84.777 E.47249
G1 X242.798 Y85.311 E.01676
G1 X231.61 Y74.122 E.49657
G1 X231.055 Y74.101 E.01741
G1 X242.799 Y85.845 E.5212
G1 X242.799 Y86.379 E.01676
G1 X230.501 Y74.08 E.54583
G1 X229.946 Y74.06 E.01741
G1 X242.8 Y86.913 E.57046
G1 X242.8 Y87.448 E.01676
G1 X229.392 Y74.039 E.59509
G1 X228.837 Y74.018 E.01741
G1 X242.801 Y87.982 E.61972
G1 X242.801 Y88.516 E.01676
G1 X228.282 Y73.997 E.64435
G1 X227.728 Y73.977 E.01741
G1 X242.801 Y89.05 E.66898
G1 X242.802 Y89.584 E.01676
G1 X227.173 Y73.956 E.69361
G1 X226.619 Y73.935 E.01741
G1 X242.802 Y90.118 E.71824
G1 X242.803 Y90.653 E.01676
G1 X226.064 Y73.914 E.74287
G1 X225.51 Y73.893 E.01741
G1 X242.803 Y91.187 E.7675
G1 X242.804 Y91.721 E.01676
G1 X224.955 Y73.873 E.79213
G1 X224.401 Y73.852 E.01741
M73 P1 R83
G1 X242.804 Y92.255 E.81675
G1 X242.805 Y92.789 E.01676
G1 X223.842 Y73.827 E.84157
G1 X223.274 Y73.792 E.01788
G1 X242.805 Y93.324 E.86682
G1 X242.805 Y93.858 E.01676
G1 X222.705 Y73.757 E.89207
G1 X222.137 Y73.723 E.01788
G1 X242.806 Y94.392 E.91732
G1 X242.806 Y94.926 E.01676
G1 X221.568 Y73.688 E.94258
G1 X220.999 Y73.653 E.01788
G1 X242.807 Y95.46 E.96783
G1 X242.807 Y95.994 E.01676
G1 X220.431 Y73.618 E.99308
G1 X219.862 Y73.583 E.01788
G1 X242.808 Y96.529 E1.01833
G1 X242.808 Y97.063 E.01676
M73 Q1 S83
G1 X219.294 Y73.549 E1.04359
G1 X218.725 Y73.514 E.01788
G1 X242.808 Y97.597 E1.06884
G1 X242.809 Y98.131 E.01676
G1 X218.157 Y73.479 E1.09409
G1 X217.588 Y73.444 E.01788
M73 P2 R83
M73 Q2 S83
G1 X242.809 Y98.665 E1.11934
G1 X242.81 Y99.2 E.01676
G1 X217.02 Y73.409 E1.14459
G1 X216.451 Y73.375 E.01788
G1 X242.81 Y99.734 E1.16985
G1 X242.811 Y100.268 E.01676
G1 X215.869 Y73.327 E1.19568
G1 X215.286 Y73.277 E.01837
G1 X242.811 Y100.802 E1.22158
G1 X242.812 Y101.336 E.01676
G1 X214.703 Y73.228 E1.24749
G1 X214.119 Y73.178 E.01837
G1 X242.812 Y101.87 E1.2734
G1 X242.812 Y102.405 E.01676
G1 X213.536 Y73.128 E1.29931
G1 X212.953 Y73.079 E.01837
G1 X242.813 Y102.939 E1.32522
G1 X242.813 Y103.473 E.01676
G1 X212.369 Y73.029 E1.35113
G1 X211.786 Y72.979 E.01837
G1 X242.814 Y104.007 E1.37704
G1 X242.814 Y104.541 E.01676
G1 X211.203 Y72.93 E1.40295
G1 X210.619 Y72.88 E.01837
G1 X242.815 Y105.076 E1.42886
G1 X242.815 Y105.61 E.01676
G1 X210.036 Y72.831 E1.45477
G1 X209.453 Y72.781 E.01837
G1 X242.815 Y106.144 E1.48068
G1 X242.816 Y106.678 E.01676
G1 X208.869 Y72.731 E1.50659
G1 X208.273 Y72.669 E.01882
G1 X242.816 Y107.212 E1.53307
G1 X242.817 Y107.746 E.01676
G1 X207.674 Y72.604 E1.55967
G1 X207.075 Y72.538 E.01891
G1 X242.817 Y108.281 E1.58628
G1 X242.818 Y108.815 E.01676
M73 P2 R82
G1 X206.476 Y72.473 E1.61288
G1 X205.877 Y72.408 E.01891
G1 X242.818 Y109.349 E1.63949
G1 X242.819 Y109.883 E.01676
G1 X205.278 Y72.343 E1.66609
G1 X204.679 Y72.277 E.01891
G1 X242.819 Y110.417 E1.69269
G1 X242.819 Y110.952 E.01676
M73 P3 R82
M73 Q3 S83
G1 X204.08 Y72.212 E1.7193
G1 X203.481 Y72.147 E.01891
M73 Q3 S82
G1 X242.82 Y111.486 E1.7459
G1 X242.82 Y112.02 E.01676
G1 X202.882 Y72.081 E1.77251
G1 X202.283 Y72.016 E.01891
G1 X242.821 Y112.554 E1.79911
G1 X242.821 Y113.088 E.01676
G1 X201.684 Y71.951 E1.82571
G1 X201.082 Y71.883 E.01899
G1 X242.822 Y113.622 E1.85242
G1 X242.822 Y114.157 E.01676
G1 X200.467 Y71.801 E1.87976
G1 X199.851 Y71.72 E.01949
G1 X242.822 Y114.691 E1.9071
G1 X242.823 Y115.225 E.01676
G1 X199.236 Y71.638 E1.93445
G1 X198.62 Y71.556 E.01949
G1 X242.823 Y115.759 E1.96179
G1 X242.824 Y116.293 E.01676
G1 X198.004 Y71.474 E1.98913
G1 X197.389 Y71.392 E.01949
G1 X242.824 Y116.828 E2.01647
G1 X242.825 Y117.362 E.01676
G1 X196.773 Y71.31 E2.04381
G1 X196.158 Y71.228 E.01949
G1 X242.825 Y117.896 E2.07115
G1 X242.826 Y118.43 E.01676
G1 X195.542 Y71.147 E2.09849
G1 X194.926 Y71.065 E.01949
G1 X242.826 Y118.964 E2.12583
G1 X242.826 Y119.498 E.01676
M73 P4 R81
M73 Q4 S82
G1 X194.311 Y70.983 E2.15317
G1 X193.695 Y70.901 E.01949
G1 X242.827 Y120.033 E2.18051
G1 X242.827 Y120.567 E.01676
G1 X193.064 Y70.804 E2.20853
G1 X192.431 Y70.704 E.02012
G1 X242.828 Y121.101 E2.23665
G1 X242.828 Y121.635 E.01676
M73 Q4 S81
G1 X191.798 Y70.605 E2.26478
G1 X191.165 Y70.505 E.02012
G1 X242.829 Y122.169 E2.2929
G1 X242.829 Y122.704 E.01676
G1 X190.531 Y70.406 E2.32102
G1 X189.898 Y70.306 E.02012
G1 X242.829 Y123.238 E2.34915
G1 X242.83 Y123.772 E.01676
G1 X189.265 Y70.207 E2.37727
G1 X188.632 Y70.107 E.02012
G1 X242.83 Y124.306 E2.4054
G1 X242.831 Y124.84 E.01676
G1 X187.998 Y70.008 E2.43352
G1 X187.365 Y69.908 E.02012
G1 X242.831 Y125.374 E2.46164
G1 X242.832 Y125.909 E.01676
G1 X186.732 Y69.809 E2.48977
G1 X186.086 Y69.697 E.02055
G1 X242.832 Y126.443 E2.51843
G1 X242.822 Y126.967 E.01645
M73 P5 R81
M73 Q5 S81
G1 X185.435 Y69.58 E2.54689
G1 X184.784 Y69.463 E.02076
G1 X242.693 Y127.371 E2.57003
G1 X242.631 Y127.564 E.00638
M73 P5 R80
G1 X242.54 Y127.752 E.00654
G1 X184.134 Y69.345 E2.59216
G1 X183.483 Y69.228 E.02076
G1 X242.367 Y128.113 E2.61336
G1 X242.304 Y128.245 E.00458
G1 X242.169 Y128.448 E.00767
G1 X182.832 Y69.111 E2.63345
G1 X182.181 Y68.994 E.02076
M73 Q5 S80
G1 X241.956 Y128.769 E2.65289
G1 X241.718 Y129.065 E.01191
G1 X181.53 Y68.876 E2.67122
G1 X180.879 Y68.759 E.02076
G1 X241.468 Y129.348 E2.68901
G1 X241.193 Y129.607 E.01185
G1 X180.228 Y68.642 E2.70568
G1 X179.577 Y68.525 E.02076
G1 X240.906 Y129.854 E2.72184
G1 X240.6 Y130.082 E.01197
G1 X178.926 Y68.408 E2.73717
G1 X178.266 Y68.282 E.02108
G1 X240.284 Y130.3 E2.75243
G1 X239.968 Y130.518 E.01204
M73 P6 R80
M73 Q6 S80
G1 X177.593 Y68.143 E2.76827
G1 X176.921 Y68.004 E.02155
G1 X239.653 Y130.736 E2.7841
G1 X239.337 Y130.954 E.01204
G1 X176.248 Y67.865 E2.79993
G1 X175.576 Y67.727 E.02155
G1 X239.021 Y131.172 E2.81576
G1 X238.705 Y131.39 E.01204
M73 P6 R79
G1 X174.903 Y67.588 E2.83159
G1 X174.231 Y67.449 E.02155
G1 X238.39 Y131.608 E2.84742
G1 X238.074 Y131.826 E.01204
G1 X173.558 Y67.31 E2.86325
G1 X172.886 Y67.172 E.02155
M73 Q6 S79
G1 X237.758 Y132.043 E2.87908
G1 X237.442 Y132.261 E.01204
G1 X172.213 Y67.033 E2.89491
G1 X171.541 Y66.894 E.02155
G1 X237.116 Y132.469 E2.91027
G1 X236.788 Y132.674 E.01215
G1 X170.85 Y66.737 E2.92636
G1 X170.089 Y66.51 E.02494
M73 P7 R79
M73 Q7 S79
G1 X236.46 Y132.88 E2.9456
G1 X236.132 Y133.086 E.01215
G1 X169.328 Y66.282 E2.96483
G1 X168.566 Y66.054 E.02494
G1 X235.804 Y133.292 E2.98407
G1 X235.476 Y133.498 E.01215
G1 X167.805 Y65.826 E3.00331
G1 X167.021 Y65.577 E.0258
G1 X235.148 Y133.703 E3.02352
G1 X234.82 Y133.909 E.01215
M73 P7 R78
G1 X166.202 Y65.291 E3.04535
G1 X165.382 Y65.005 E.02725
G1 X234.492 Y134.115 E3.06717
G1 X234.164 Y134.321 E.01215
G1 X164.562 Y64.719 E3.089
G1 X163.742 Y64.433 E.02725
M73 Q7 S78
